images/icons/Iconshield.svg

<svg width="38" height="40" viewBox="0 0 38 40" fill="none" xmlns="http://www.w3.org/2000/svg">
<path d="M21.9017 1.01767C20.1165 -0.0572404 17.8835 -0.0572391 16.0983 1.01767L14.8076 1.7949C11.6757 3.68075 8.15978 4.83797 4.52008 5.18088L3.70688 5.25749C2.10165 5.40873 0.875 6.75638 0.875 8.36872V12.4784C0.875 19.425 3.69521 26.0739 8.68959 30.9021L16.828 38.7696C18.0393 39.9405 19.9607 39.9405 21.172 38.7696L29.3104 30.9021C34.3048 26.0739 37.125 19.425 37.125 12.4784V8.36872C37.125 6.75638 35.8984 5.40873 34.2931 5.25749L33.4799 5.18088C29.8402 4.83797 26.3243 3.68075 23.1924 1.7949L21.9017 1.01767Z" fill="#299764"/>
</svg>

<svg width="38" height="40" fill="none" xmlns="http://www.w3.org/2000/svg"><path d="M21.902 1.018a5.625 5.625 0 0 0-5.804 0l-1.29.777A24.375 24.375 0 0 1 4.52 5.18l-.813.076A3.125 3.125 0 0 0 .875 8.37v4.11c0 6.946 2.82 13.595 7.815 18.423l8.138 7.868a3.125 3.125 0 0 0 4.344 0l8.138-7.868a25.625 25.625 0 0 0 7.815-18.424v-4.11a3.125 3.125 0 0 0-2.832-3.11l-.813-.077a24.375 24.375 0 0 1-10.288-3.386l-1.29-.777Z" fill="#299764"/></svg>
